svg/24/logo-snapchat-set.svg

<svg width="24" height="24" viewBox="0 0 24 24" fill="currentColor" xmlns="http://www.w3.org/2000/svg"><path d="M19.911 11.4617C20.0319 11.0947 20.0225 10.696 19.8804 10.3289C19.634 9.67834 19.0229 9.27912 18.2786 9.27912C18.1209 9.27912 17.9681 9.2939 17.8104 9.3284C17.7907 9.33332 17.7698 9.33825 17.7489 9.34317C17.728 9.3481 17.7069 9.35305 17.6872 9.35798C17.6921 8.9144 17.6823 8.44617 17.6428 7.98288C17.5048 6.36135 16.9331 5.51362 16.3417 4.83839C15.9622 4.41453 15.5186 4.05473 15.0208 3.7738C14.1238 3.26122 13.1035 3 11.9946 3C10.8856 3 9.87033 3.26122 8.97332 3.7738C8.47552 4.05473 8.03194 4.41453 7.65243 4.83839C7.061 5.51362 6.4942 6.36628 6.35127 7.98288C6.31184 8.44617 6.30188 8.91437 6.30681 9.35795C6.26741 9.3481 6.22801 9.33825 6.18369 9.3284C6.0309 9.2939 5.87319 9.27912 5.7204 9.27912C4.97617 9.27912 4.36502 9.68327 4.11858 10.3289C3.94115 10.7873 3.97072 11.2949 4.20237 11.7287C4.36502 12.0392 4.62624 12.3152 4.99589 12.5764C5.08275 12.6372 5.21182 12.721 5.37615 12.8278L5.44439 12.8721C5.54787 12.9411 5.70073 13.0397 5.85347 13.1383C5.90769 13.1728 5.95205 13.2171 5.98655 13.2713C6.01612 13.3354 6.02105 13.4044 5.97176 13.5326C5.87319 13.7494 5.7549 13.9613 5.6169 14.1585C5.13882 14.8584 4.4488 15.4547 3.5715 15.9328C3.50222 15.9697 3.4325 16.0046 3.36332 16.0393C2.96992 16.2367 2.59424 16.4252 2.41819 16.8988C2.26541 17.3178 2.36398 17.7909 2.75334 18.1951C2.89627 18.3429 3.06385 18.4711 3.24621 18.5697C3.62572 18.7767 4.02987 18.9393 4.45373 19.0527C4.54245 19.0773 4.62131 19.1118 4.69524 19.1611C4.76927 19.2249 4.79967 19.3059 4.8378 19.4076C4.87329 19.5021 4.91547 19.6146 5.00574 19.7476C5.09939 19.8905 5.2226 20.0137 5.36061 20.1123C5.75399 20.3843 6.19524 20.4026 6.66076 20.422L6.68149 20.4228C7.11028 20.4376 7.59329 20.4573 8.15023 20.6397C8.38187 20.7136 8.61847 20.8615 8.89446 21.034C9.55983 21.4431 10.4667 22 11.9897 22C12.2662 22 12.5226 21.9815 12.7611 21.9487C12.4654 21.6338 12.2007 21.2894 11.972 20.9205C10.7832 20.9119 10.1044 20.4945 9.48573 20.1141C9.16521 19.917 8.86083 19.7298 8.51002 19.6145C7.81373 19.3834 7.20557 19.3599 6.74959 19.3424C6.39867 19.3289 6.13787 19.3188 5.9964 19.2202C5.87648 19.1365 5.85628 18.9853 5.8347 18.8238C5.80928 18.6334 5.78195 18.4288 5.58732 18.3035C5.39272 18.1782 5.17372 18.12 4.91565 18.0513C4.60509 17.9687 4.23787 17.871 3.78836 17.6233C3.261 17.3326 3.56164 17.1551 3.73415 17.0713C6.72092 15.6272 7.199 13.3946 7.21871 13.227L7.2216 13.2035C7.24528 13.0125 7.26428 12.8593 7.05114 12.6651C6.90138 12.5258 6.38493 12.1921 6.00089 11.9439C5.84145 11.8409 5.70483 11.7526 5.62675 11.6991C5.19303 11.3935 5.00081 11.0929 5.14375 10.7183C5.24232 10.462 5.48382 10.3634 5.73518 10.3634C5.81404 10.3634 5.8929 10.3733 5.97176 10.3881C6.26164 10.4508 6.54608 10.5625 6.78444 10.6561C6.93919 10.7169 7.07451 10.77 7.17928 10.7971C7.21378 10.807 7.24336 10.8119 7.27786 10.8119C7.42079 10.8119 7.47007 10.738 7.46022 10.5754L7.45133 10.4232C7.41865 9.8712 7.36423 8.95225 7.4405 8.08638C7.55386 6.78029 7.9728 6.1297 8.47552 5.55798C8.71703 5.28197 9.84569 4.08923 12.0094 4.08923C14.1731 4.08923 15.3017 5.27704 15.5432 5.55305C16.0459 6.12477 16.4649 6.77536 16.5782 8.08145C16.6586 8.99333 16.594 9.96408 16.5581 10.5031L16.5536 10.5704C16.5437 10.7429 16.593 10.807 16.736 10.807C16.7705 10.807 16.8 10.8021 16.8345 10.7922C16.9435 10.766 17.0855 10.71 17.2481 10.6459C17.4826 10.5535 17.7597 10.4443 18.0421 10.3831C18.1209 10.3634 18.1998 10.3585 18.2786 10.3585C18.53 10.3585 18.7715 10.4571 18.8701 10.7134C18.9294 10.8688 18.931 11.0115 18.8816 11.1471C19.2364 11.2239 19.5804 11.3296 19.911 11.4617Z"/><path fill-rule="evenodd" clip-rule="evenodd" d="M17.5 23C20.5376 23 23 20.5376 23 17.5C23 14.4624 20.5376 12 17.5 12C14.4624 12 12 14.4624 12 17.5C12 20.5376 14.4624 23 17.5 23ZM20.0001 15.4999C20.0001 15.2238 19.7762 14.9999 19.5001 14.9999H16.6716C16.3955 14.9999 16.1716 15.2238 16.1716 15.4999C16.1716 15.7761 16.3955 15.9999 16.6716 15.9999H18.293L15.1464 19.1465C14.9511 19.3418 14.9511 19.6584 15.1464 19.8536C15.3416 20.0489 15.6582 20.0489 15.8535 19.8536L19.0001 16.707V18.3284C19.0001 18.6045 19.2239 18.8284 19.5001 18.8284C19.7762 18.8284 20.0001 18.6045 20.0001 18.3284V15.4999Z"/></svg>

<svg xmlns="http://www.w3.org/2000/svg" width="24" height="24" fill="currentColor" viewBox="0 0 24 24">
  <path d="M19.911 11.462a1.69 1.69 0 0 0-.03-1.133c-.247-.65-.858-1.05-1.602-1.05a2.16 2.16 0 0 0-.53.064l-.062.015c.005-.444-.005-.912-.044-1.375-.138-1.622-.71-2.47-1.301-3.145a5.206 5.206 0 0 0-1.321-1.064C14.124 3.26 13.103 3 11.995 3c-1.11 0-2.125.261-3.022.774-.497.28-.941.64-1.32 1.064-.592.676-1.159 1.528-1.302 3.145-.04.463-.05.931-.044 1.375l-.123-.03a2.115 2.115 0 0 0-.464-.049c-.744 0-1.355.404-1.601 1.05-.178.458-.148.966.083 1.4.163.31.424.586.794.847.087.061.216.145.38.252l.068.044c.104.07.257.168.41.266a.429.429 0 0 1 .133.133c.03.064.034.133-.015.262a3.933 3.933 0 0 1-.355.626c-.478.7-1.168 1.296-2.046 1.774a6.797 6.797 0 0 1-.208.106c-.393.198-.769.386-.945.86-.153.419-.054.892.335 1.296.143.148.31.276.493.375.38.207.784.37 1.208.483a.82.82 0 0 1 .241.108c.074.064.105.145.143.247.035.094.077.207.168.34.093.142.217.266.355.364.393.272.834.29 1.3.31h.02c.43.016.912.035 1.47.218.23.074.467.221.743.394.666.41 1.573.966 3.096.966.276 0 .533-.018.771-.051a6.525 6.525 0 0 1-.789-1.029c-1.189-.008-1.868-.426-2.486-.806-.32-.197-.625-.384-.976-.5-.696-.23-1.304-.254-1.76-.272-.351-.013-.612-.023-.754-.122-.12-.083-.14-.235-.161-.396-.026-.19-.053-.395-.248-.52-.194-.126-.413-.184-.671-.253a4.571 4.571 0 0 1-1.128-.428c-.527-.29-.226-.468-.054-.552 2.987-1.444 3.465-3.676 3.485-3.844l.003-.024c.023-.19.042-.344-.17-.538-.15-.14-.667-.473-1.051-.721-.16-.103-.296-.191-.374-.245-.434-.306-.626-.606-.483-.98.098-.257.34-.356.591-.356.079 0 .158.01.237.025.29.063.574.175.812.268.155.06.29.114.395.141a.34.34 0 0 0 .099.015c.143 0 .192-.074.182-.237l-.009-.152c-.032-.552-.087-1.47-.01-2.337.113-1.306.532-1.956 1.035-2.528.241-.276 1.37-1.469 3.533-1.469 2.164 0 3.293 1.188 3.534 1.464.503.572.922 1.222 1.035 2.528.08.912.016 1.883-.02 2.422l-.004.067c-.01.173.039.237.182.237a.34.34 0 0 0 .098-.015 3.43 3.43 0 0 0 .414-.146c.235-.093.512-.202.794-.263a.965.965 0 0 1 .237-.024c.251 0 .492.098.591.354a.6.6 0 0 1 .012.434c.354.077.698.183 1.029.315Z"/>
  <path fill-rule="evenodd" d="M17.5 23a5.5 5.5 0 1 0 0-11 5.5 5.5 0 0 0 0 11Zm2.5-7.5a.5.5 0 0 0-.5-.5h-2.828a.5.5 0 0 0 0 1h1.621l-3.147 3.146a.5.5 0 1 0 .707.708L19 16.707v1.621a.5.5 0 1 0 1 0V15.5Z" clip-rule="evenodd"/>
</svg>
